X: 2252
Q: "Irish Jig."
M: 6/8
L: 1/8
K: G
vg/ue/ |\
dBG GFG | ABA ABd | vg2ve dBd | gGG G2 g/e/ |\
dBG GFG | ABA ABd | g2e dBd | gGG G2 :|
|: ud |\
def gfg | efg agf | gab efg | dBG (B2A) |\


